img/settings-icon.svg

<svg width="16" height="16" viewBox="0 0 16 16" fill="none" xmlns="http://www.w3.org/2000/svg">
<path fill-rule="evenodd" clip-rule="evenodd" d="M8.66679 2.76328C9.63063 3.05016 10.3335 3.94305 10.3334 5.00008C10.3333 6.05935 9.62745 6.95373 8.66042 7.23854C8.66482 7.26949 8.6671 7.30112 8.6671 7.33329L8.66678 14C8.66676 14.3681 8.36827 14.6666 8.00008 14.6666C7.63189 14.6666 7.33343 14.3681 7.33345 13.9999L7.33377 7.33322C7.33377 7.30115 7.33604 7.26961 7.34042 7.23875C6.37294 6.95414 5.66668 6.05946 5.66673 4.99986C5.66678 3.94287 6.36964 3.05006 7.33346 2.76324L7.3335 1.99989C7.33351 1.6317 7.63201 1.33323 8.00019 1.33325C8.36838 1.33327 8.66685 1.63176 8.66683 1.99995L8.66679 2.76328ZM7.00007 4.99992C7.00009 4.44764 7.44783 3.99994 8.00011 3.99997C8.5524 3.99999 9.00009 4.44773 9.00007 5.00002C9.00004 5.5523 8.5523 5.99999 8.00002 5.99997C7.44773 5.99994 7.00004 5.5522 7.00007 4.99992ZM10.0002 11.0001C10.0001 12.0571 10.7029 12.95 11.6668 13.2369L11.6667 14.0002C11.6667 14.3684 11.9652 14.6669 12.3334 14.6669C12.7016 14.6669 13 14.3685 13.0001 14.0003L13.0001 13.2369C13.9639 12.9501 14.6668 12.0573 14.6668 11.0003C14.6669 9.9407 13.9606 9.04602 12.9931 8.76141C12.9975 8.73055 12.9998 8.69901 12.9998 8.66694L13.0001 2.00028C13.0001 1.63209 12.7017 1.3336 12.3335 1.33358C11.9653 1.33356 11.6668 1.63202 11.6668 2.00021L11.6665 8.66688C11.6665 8.69904 11.6687 8.73067 11.6731 8.76162C10.7061 9.04643 10.0002 9.94081 10.0002 11.0001ZM13.3335 11.0002C13.3335 11.5525 12.8857 12.0002 12.3334 12.0002C11.7812 12.0002 11.3335 11.5524 11.3335 11.0001C11.3335 10.4479 11.7813 10.0002 12.3335 10.0002C12.8858 10.0002 13.3335 10.448 13.3335 11.0002ZM3.00023 13.2367C2.03632 12.9499 1.33345 12.0569 1.3335 10.9999C1.33355 9.94053 2.0395 9.04611 3.00659 8.76131C3.0022 8.73041 2.99993 8.69883 2.99993 8.66672L3.00025 2.00005C3.00026 1.63186 3.29875 1.3334 3.66694 1.33342C4.03513 1.33343 4.3336 1.63192 4.33358 2.00011L4.33326 8.66678C4.33326 8.69881 4.331 8.73032 4.32663 8.76114C5.2941 9.04578 6.00034 9.94046 6.00029 11.0001C6.00024 12.0571 5.29739 12.9499 4.33357 13.2367L4.33353 14.0001C4.33351 14.3683 4.03502 14.6668 3.66683 14.6667C3.29864 14.6667 3.00018 14.3682 3.0002 14.0001L3.00023 13.2367ZM3.66685 12C4.21917 12.0001 4.66693 11.5523 4.66696 11C4.66699 10.4477 4.21926 9.99993 3.66694 9.9999C3.11462 9.99988 2.66686 10.4476 2.66683 10.9999C2.6668 11.5522 3.11453 12 3.66685 12Z" fill="#363942"/>
</svg>

<svg width="16" height="16" fill="none" xmlns="http://www.w3.org/2000/svg"><path fill-rule="evenodd" clip-rule="evenodd" d="M8.667 2.763A2.334 2.334 0 0 1 8.66 7.24c.005.03.007.062.007.094V14a.667.667 0 0 1-1.334 0V7.333a.73.73 0 0 1 .007-.094 2.334 2.334 0 0 1-.007-4.476V2a.667.667 0 1 1 1.334 0v.763zM7 5a1 1 0 1 1 2 0 1 1 0 0 1-2 0zm3 6c0 1.057.703 1.95 1.667 2.237V14A.667.667 0 0 0 13 14v-.763a2.334 2.334 0 0 0-.007-4.476.669.669 0 0 0 .007-.094V2a.667.667 0 1 0-1.333 0v6.667c0 .032.002.064.006.095A2.334 2.334 0 0 0 10 11zm3.334 0a1 1 0 1 1-2 0 1 1 0 0 1 2 0zM3 13.237a2.334 2.334 0 0 1 .007-4.476A.672.672 0 0 1 3 8.667V2a.667.667 0 1 1 1.334 0v6.667a.672.672 0 0 1-.007.094 2.334 2.334 0 0 1 .007 4.476V14A.667.667 0 1 1 3 14v-.763zM3.667 12a1 1 0 1 0 0-2 1 1 0 0 0 0 2z" fill="#363942"/></svg>
